packages/assets/static/images/icons/thumbs-up.svg

<svg width="24" height="24" viewBox="0 0 24 24" xmlns="http://www.w3.org/2000/svg" fill="currentColor" aria-hidden="true"> <path d="M22.7188 7.26281C22.4723 6.98366 22.1693 6.76013 21.8299 6.60706C21.4905 6.45399 21.1224 6.37489 20.75 6.375H15.875V5.25C15.8738 4.15636 15.4388 3.10787 14.6654 2.33455C13.8921 1.56124 12.8436 1.12624 11.75 1.125C11.5412 1.12502 11.3364 1.18318 11.1588 1.29296C10.9811 1.40273 10.8375 1.5598 10.7441 1.74656L7.30438 8.625H3.5C3.00272 8.625 2.52581 8.82254 2.17417 9.17418C1.82254 9.52581 1.625 10.0027 1.625 10.5V18.75C1.625 19.2473 1.82254 19.7242 2.17417 20.0758C2.52581 20.4275 3.00272 20.625 3.5 20.625H19.625C20.2648 20.6249 20.8825 20.3912 21.3621 19.9677C21.8417 19.5442 22.1501 18.9602 22.2294 18.3253L23.3544 9.32531C23.4007 8.95612 23.3679 8.5813 23.2583 8.22572C23.1487 7.87013 22.9648 7.54191 22.7188 7.26281ZM3.875 10.875H6.875V18.375H3.875V10.875ZM21.125 9.04688L20 18.0469C19.9885 18.138 19.944 18.2217 19.8749 18.2822C19.8058 18.3427 19.7168 18.3757 19.625 18.375H9.125V10.0153L12.3894 3.4875C12.7514 3.61882 13.0642 3.85844 13.2853 4.17378C13.5064 4.48912 13.625 4.86489 13.625 5.25V7.5C13.625 7.79837 13.7435 8.08452 13.9545 8.2955C14.1655 8.50647 14.4516 8.625 14.75 8.625H20.75C20.8035 8.62458 20.8564 8.63559 20.9052 8.6573C20.9541 8.679 20.9977 8.7109 21.0332 8.75085C21.0687 8.7908 21.0953 8.83788 21.1111 8.88894C21.127 8.93999 21.1317 8.99384 21.125 9.04688Z"/> </svg>

<svg viewBox="0 0 24 24" xmlns="http://www.w3.org/2000/svg" aria-hidden="true" fill="currentColor"><path d="M22.719 7.263a2.63 2.63 0 0 0-1.969-.888h-4.875V5.25a4.13 4.13 0 0 0-4.125-4.125 1.13 1.13 0 0 0-1.006.622l-3.44 6.878H3.5A1.875 1.875 0 0 0 1.625 10.5v8.25A1.875 1.875 0 0 0 3.5 20.625h16.125a2.625 2.625 0 0 0 2.604-2.3l1.125-9a2.62 2.62 0 0 0-.635-2.062M3.875 10.875h3v7.5h-3zm17.25-1.828-1.125 9a.375.375 0 0 1-.375.328h-10.5v-8.36l3.264-6.528a1.875 1.875 0 0 1 1.236 1.763V7.5a1.125 1.125 0 0 0 1.125 1.125h6a.375.375 0 0 1 .375.422"/></svg>
